icon_installer/data/icons/scalable/actions/show-broken-camera-inverse-symbolic.svg

<?xml version="1.0" encoding="UTF-8"?>
<svg height="16px" viewBox="0 0 16 16" width="16px" xmlns="http://www.w3.org/2000/svg">
    <g fill="#222222">
        <path d="m 3 3 c -1.109375 0 -2 0.890625 -2 2 v 6 c 0 1.109375 0.890625 2 2 2 h 6 c 1.109375 0 2 -0.890625 2 -2 v -6 c 0 -1.109375 -0.890625 -2 -2 -2 z m 0.363281 2 h 5.273438 c 0.203125 0 0.363281 0.160156 0.363281 0.363281 v 5.273438 c 0 0.203125 -0.160156 0.363281 -0.363281 0.363281 h -5.273438 c -0.203125 0 -0.363281 -0.160156 -0.363281 -0.363281 v -5.273438 c 0 -0.203125 0.160156 -0.363281 0.363281 -0.363281 z m 0 0"/>
        <path d="m 11 8 l 3 -3 h 1 v 6 h -1 z m 0 0"/>
        <path d="m 4.980469 5.988281 l -0.011719 0.011719 h -0.96875 v 0.972656 l -0.007812 0.007813 l 0.007812 0.003906 v 0.015625 h 0.015625 l 0.992187 0.988281 l -1.015624 1.007813 l 0.007812 0.003906 v 1 h 1 v -0.027344 l 1 -0.996094 l 1 0.996094 v 0.027344 h 1 v -1 l 0.003906 -0.003906 l -1.011718 -1.007813 l 0.988281 -0.988281 h 0.015625 v -0.015625 l 0.007812 -0.007813 l -0.007812 -0.003906 v -0.972656 h -0.96875 l -0.011719 -0.015625 l -0.015625 0.015625 h -0.003906 v 0.003906 l -0.996094 0.996094 l -1 -0.996094 v -0.003906 h -0.003906 z m 0 0"/>
    </g>
</svg>

<svg xmlns="http://www.w3.org/2000/svg" width="16" height="16"><g fill="#222"><path d="M3 3c-1.11 0-2 .89-2 2v6c0 1.11.89 2 2 2h6c1.11 0 2-.89 2-2V5c0-1.11-.89-2-2-2zm.363 2h5.274A.36.36 0 0 1 9 5.363v5.274a.36.36 0 0 1-.363.363H3.363A.36.36 0 0 1 3 10.637V5.363A.36.36 0 0 1 3.363 5zM11 8l3-3h1v6h-1zm0 0"/><path d="M4.98 5.988 4.97 6H4v.973l-.008.007.008.004V7h.016l.992.988-1.016 1.008L4 9v1h1v-.027l1-.996 1 .996V10h1V9l.004-.004-1.012-1.008L7.98 7h.016v-.016l.008-.007-.008-.004V6h-.969l-.011-.016L7 6h-.004v.004L6 7l-1-.996V6h-.004zm0 0"/></g></svg>
